X: 5052
T: Brian's
R: reel
M: 4/4
K: Eminor
|:BEEG FEGF|EGGE ~A3d|cE~E2 DEGE|EGAE GBde|
ABEG FEG2-|GFAF FEED|cE~E2 DEGE|1 GAA/A/A ABB/B/B:|2 ABGF E2z2||
BEFG ~G2Ec-|cEFG ~G2Ed-|dEFG ~G2EF-|FEG2 EA2E|
BEFG ~G2Ec-|cEFG ~G2Ez|dGG/G/G FGdd|zFF/F/F EFD2|
BEFG ~G2Ec-|cEFG ~G2Ed-|dEFG G2Ez|~d2Ae- eAfz|
fee/e/e dBag-|gf2e- ezAB/c/|de2B c2A2-|A2FG ABde||

